!!!!SEGMENT: pl-sa--58-a-i-58--001-001_lechleitner-ferdinand-simon--vesperae-in-f-domine-ad-adiuvandum.krn
!!!cenid: 17xx:411
!!!COM: Lechleitner, Ferdinand Simon
!!!COM-rismid: pe30001903
!!!CDT: ~1700-~1800
!!!CNT:
!!!OPR: Vesperae in F
!!!OTL: Domine ad adiuvandum
!!!OMV: 001
!!!PDT: 1726
!!!AGN: Sacred; Vespers
!!!SMS-siglum: PL-SA
!!!SMS-shelfmark: 58/A I 58
!!!SMS-shelfwork: 001-001 M
!!!SMS-variant: Organo: PL-SA 58/A I 58:85 Violino1: PL-SA 58/A I 58:51
!!!SMS-altvar: Organo in Es: PL-SA 58/A I 58:104 Violino1 in Es: PL-SA 58/A I 58:94
!!!NIFC-rismid: 1001068282
!!!URL-scan: http://bc.bdsandomierz.pl/dlibra/publication/1347/edition/1315/content
!!!ONB-nifc: UWAGA: części Vespere: Domine ad adiuvandum, Dixit dominus, Confitebor, Beatus vir, Laudate pueri, Laudate Dominum, Magnificat
!!!key:
**kern	**fba	**kern	**kern	**kern	**text	**kern	**text	**kern	**text	**kern	**text	**kern	**kern	**dynam
*part9	*	*part8	*part7	*part6	*part6	*part5	*part5	*part4	*part4	*part3	*part3	*part2	*part1	*part1
*staff9	*	*staff8	*staff7	*staff6	*staff6	*staff5	*staff5	*staff4	*staff4	*staff3	*staff3	*staff2	*staff1	*
*Iorgan	*	*Ivioln	*Ivioln	*Iempty	*	*Itenor	*	*Ialto	*	*Ivox	*	*Iliuto	*Iliuto	*
*I"Organo	*	*I"Violino 2do.	*I"Violino 1mo.	*I"Baſsus.	*	*I"Tenor	*	*I"Altus	*	*I"Cantus	*	*I"Lituo 2.do	*I"Lituo 1mo.	*
*I'org	*	*I'vn2	*I'vn1	*I'B	*	*I'T	*	*I'A	*	*I'S	*	*I'lituo 2	*I'lituo 1	*
*clefF4	*	*clefG2	*clefG2	*clefF4	*	*clefC4	*	*clefC3	*	*clefC1	*	*clefG2	*clefG2	*
*	*	*	*	*	*	*	*	*	*	*	*	*ITrd-3c-5	*ITrd-3c-5	*
*k[b-]	*	*k[b-]	*k[b-]	*k[b-]	*	*k[b-]	*	*k[b-]	*	*k[b-]	*	*k[b-]	*k[b-]	*
*F:	*	*F:	*F:	*F:	*	*F:	*	*F:	*	*F:	*	*	*	*
*M2/2	*	*M2/2	*M2/2	*M2/2	*	*M2/2	*	*M2/2	*	*M2/2	*	*M2/2	*M2/2	*
*met(c|)	*	*met(c|)	*met(c|)	*met(c|)	*	*met(c|)	*	*met(c|)	*	*met(c|)	*	*met(c|)	*met(c|)	*
=1	=1	=1	=1	=1	=1	=1	=1	=1	=1	=1	=1	=1	=1	=1
!LO:TX:a:t=P:mixed beam:problem	!	!	!	!	!	!	!	!	!	!	!	!	!	!
!LO:SIC:o:s=:v:8\right global	!	!	!	!	!	!	!	!	!	!	!	!	!	!
!LO:TX:rj:a:t=Tutti	!	!LO:TX:a:t=Tutti	!LO:TX:rj:b:t=Domine ad adjuvandum.	!	!	!	!	!	!	!	!	!LO:TX:a:t=Tutti	!LO:TX:a:t=Tutti	!
!LO:TX:rj:b:t=Domine ad adiuvandum	!	!LO:TX:rj:b:t=Domine ad adjuvandum.	!LO:TX:rj:a:t=Tutti	!LO:TX:a:t=Tutti	!	!	!	!LO:TX:a:t=Tutti	!	!LO:TX:rj:a:t=Tutti	!	!LO:TX:rj:b:t=Domine ad adjuvandu(m).	!LO:TX:rj:b:t=Domine ad adjuvandu(m).	!
8.F\L	.	8.ff\L	8.aa\L	8.F\	Do-	8.c\	Do-	8.f\	Do-	8.a\	Do-	8.ff\L	8.aa\L	.
!LO:SIC:o:s=:v:16\right global	!	!	!	!	!	!	!	!	!	!	!	!	!	!
16F\Jk	.	16ff\K	16aa\K	16F\	-mi-	16c\	-mi-	16f\	-mi-	16a\	-mi-	16ff\K	16aa\K	.
!	!	!	!	!	!	!	!	!	!	!LO:SIC:o=:v:oddech jako rozdzielacz słów-global	!	!	!	!
8F\L	.	8ff\	8aa\	8F\	-ne	8c\	-ne	8f\	-ne	8a,<\	-ne,	8ff\	8aa\	.
8C\J	.	8ee\J	8gg\J	8C/	ad	8e\	ad	8e\	ad	8cc\	ad	8gg\J	8ccc\J	.
!	!	!LO:TX:a:t=P:mixed beam:problem	!	!	!	!	!	!	!	!	!	!	!	!
8D\L	6	8b-/L	8ff\L	8D/	ad-	8d\	ad-	8f\	ad-	8b-\	ad-	8ff\L	8bb-\L	.
8F\J	.	8ff\J	8aa\J	8F\	-ju-	8c\	-ju-	8a\	-ju-	8a\	-ju-	8aa\J	8aa\J	.
!LO:TX:a:t=P:mixed beam:problem	!	!	!	!	!	!	!	!	!	!	!	!	!	!
8G\L	7	16dd\LL	8bb-\L	8G\	-van-	8B-\	-van-	8g\	-van-	8b-\	-van-	8gg\L	8bb-\L	.
.	.	16gg\	.	.	.	.	.	.	.	.	.	.	.	.
8C/J	7	16ff\	16aa\L	8C/	-dum	8e\	-dum	(16a\LL	-du(m)	8cc,<\	-dum,	16aa\L	16ccc\L	.
.	.	16ee\JJ	16gg\JJ	.	.	.	.	16g\JJ)	.	.	.	16gg\JJ	16bb-\JJ	.
=2	=2	=2	=2	=2	=2	=2	=2	=2	=2	=2	=2	=2	=2	=2
!LO:SIC:o:s=:v:4\right global	!	!LO:TX:a:t=P:mixed beam:problem	!LO:TX:a:t=P:mixed beam:problem	!	!	!	!	!	!	!	!	!LO:TX:a:t=P:mixed beam:problem	!LO:TX:a:t=P:mixed beam:problem	!
4F\	.	16ff\LL	16aa\LL	4F\	me	4c\	me	4f\	me	4a\	me	8ff\L	8aa\L	.
.	.	16f/	16f/	.	.	.	.	.	.	.	.	.	.	.
.	.	16a/	16a/	.	.	.	.	.	.	.	.	8f/	8a/	.
.	.	16cc/JJ	16cc/JJ	.	.	.	.	.	.	.	.	.	.	.
8r	.	16ff\LL	16ff\LL	8r	.	8r	.	8r	.	8r	.	8a/	8cc/	.
.	.	16a\	16a\	.	.	.	.	.	.	.	.	.	.	.
8F\	.	16cc\	16cc\	8F\	fe-	8c\	fe-	8f\	ad	8a\	ad	8cc/J	8ff/J	.
.	.	16ff\JJ	16aa\JJ	.	.	.	.	.	.	.	.	.	.	.
!LO:TX:a:t=P:mixed beam:problem	!	!	!	!	!	!	!	!	!	!	!	!	!LO:TX:a:t=P:mixed beam:problem	!
8c\L	.	8ee\L	(16gg\LL	8c\	-sti-	8e\	-sti-	(16e\LL	ad-	(16g\LL	ad-	8cc/L	8gg\L	.
.	.	.	16ff\)	.	.	.	.	16f\JJ)	.	16a\JJ)	.	.	.	.
8C/J	.	8cc\J	(16gg\	8c\	-na	8e\	-na	(16e\LL	-ju-	(16g\LL	-ju-	8cc/J	16cc/L	.
.	.	.	16ff\JJ)	.	.	.	.	16f\JJ)	.	16a\JJ)	.	.	16cc/JJ	.
8r	.	16g/LL	(16ee\LL	8r	.	8r	.	(16g\LL	-van-	(16b-\LL	-van-	4r	8cc/L	.
.	.	16a/	16ff\)	.	.	.	.	16f\JJ)	.	16a\JJ)	.	.	.	.
*	*	*	*	*	*	*	*ij	*	*	*	*	*	*	*
8F\	.	16g/	(16ee\	8F\	fe-	8c\	fe-	16g\LL	-du(m)	(16b-\LL	-dum,	.	8cc/J	.
.	.	16a/JJ	16ff\JJ)	.	.	.	.	16f\JJ	.	16a\JJ)	.	.	.	.
=3	=3	=3	=3	=3	=3	=3	=3	=3	=3	=3	=3	=3	=3	=3
!LO:TX:a:t=P:mixed beam:problem	!	!	!	!	!	!	!	!	!	!	!	!	!	!
8c\L	.	16b-/LL	(16gg\LL	8c\	-sti-	8e\	-sti-	(16e\LL	ad-	(16g\LL	ad-	8cc/L	8cc/L	.
.	.	16a/	16ff\)	.	.	.	.	16f\JJ)	.	16a\JJ)	.	.	.	.
8C/J	.	16b-/	(16gg\	8c\	-na	8e\	-na	(16e\LL	-ju-	(16g\LL	-ju-	16cc/L	16cc/L	.
.	.	16a/JJ	16ff\JJ)	.	.	.	.	16f\JJ)	.	16a\JJ)	.	16cc/JJ	16cc/JJ	.
8r	.	8g/L	16ee`\LL	8r	.	8r	.	(16g\LL	-van-	(16b-\LL	-van-	8cc/L	16cc/LL	.
.	.	.	16ff`\	.	.	.	.	16f\JJ)	.	16a\JJ)	.	.	16cc/	.
*	*	*	*	*	*ij	*	*	*	*	*	*	*	*	*
8F\	.	16cc/L	16ee`\	8F\	fe-	8c\	fe-	(16g\LL	-dum	(16b-\LL	-dum	8cc/	16cc/	.
.	.	16dd/JJ	16ff`\JJ	.	.	.	.	16f\JJ)	.	16a\JJ)	.	.	16cc/JJ	.
!LO:TX:a:t=P:mixed beam:problem	!	!	!	!	!	!	!	!LO:SIC:o=:v:oddech jako rozdzielacz słów-global	!	!	!	!	!	!
8c\L	.	8ee\L	4gg\	8c\	-sti-	4c\	-sti-	8e,<\	me	8g,</	me	8cc/	8cc/L	.
8C/J	.	8ee\J	.	8c\	-na	.	.	8e\	ad	8cc\	ad	8cc/J	8cc/J	.
4r	.	4r	4r	4r	.	4c\	-na	8f\	ad-	8dd\	ad-	4r	4r	.
.	.	.	.	.	.	.	.	8g\	-ju-	8ee\	-ju-	.	.	.
*	*	*	*	*	*Xij	*	*Xij	*	*	*	*	*	*	*
!	!	!LO:LB:g=original	!	!LO:LB:g=original	!	!	!	!	!	!LO:LB:g=original	!	!	!	!
=4	=4	=4	=4	=4	=4	=4	=4	=4	=4	=4	=4	=4	=4	=4
8r	.	8r	8r	8r	.	8r	.	4a\	-van-	4ff\	-van-	1r	1r	.
8F\L	.	8ff\L	8aa\L	8F\	ad	8c\	ad	.	.	.	.	.	.	.
!	!	!	!	!	!	!	!	!LO:LB:g=original	!	!	!	!	!	!
8G\	x 6	8ee\	8gg\	8G\	ad-	8B-\	ad-	8g\	-dum	8ee,<\	-dum	.	.	.
!	!	!	!	!	!	!LO:LB:g=original	!	!	!	!	!	!	!	!
8A\J	x 6	8ff\J	8ff\J	8A\	-ju-	8c\	-ju-	8f\	ad	8ff\	ad	.	.	.
!	!	!	!LO:LB:g=original	!	!	!	!	!	!	!	!	!	!	!
4B-\	x 3	8dd\L	16ff\LL	4B-\	-van-	(8d\L	-van-	8f\	ad-	8dd\	ad-	.	.	.
.	.	.	16bb-\	.	.	.	.	.	.	.	.	.	.	.
.	4 2	8ee\	16gg\	.	.	8c\J)	.	8g\	-ju-	8ee\	-ju-	.	.	.
.	.	.	16bb-\JJ	.	.	.	.	.	.	.	.	.	.	.
!	!	!	!	!	!	!LO:SIC:o=:v:oddech jako rozdzielacz słów-global	!	!	!	!	!	!	!	!
8A\L	x 6	8ff\	16ff\LL	8A\	-dum	8c,<\	-dum	8a\	-van-	8ff\	-van-	.	.	.
.	.	.	16aa\	.	.	.	.	.	.	.	.	.	.	.
8B-\J	.	8dd\J	16dd\	8B-\	ad	8d\	ad	8f\	-dum	8dd\	-dum,	.	.	.
.	.	.	16ff\JJ	.	.	.	.	.	.	.	.	.	.	.
=5	=5	=5	=5	=5	=5	=5	=5	=5	=5	=5	=5	=5	=5	=5
8G\L	.	8dd\L	8gg\L	8G\	ad-	8B-\	ad-	8g\	me	8dd\	me,	2r	2r	.
8A\	.	8cc\J	8ff\J	8A\	-ju-	8c\	-ju-	8f\	fe-	8cc\	fe-	.	.	.
8B-\	6	8.ddT\L	8.gg\L	8B-\	-van-	8B-\	-van-	4g\	-sti-	4dd\	-sti-	.	.	.
8G\J	7	.	.	8G\	-dum	8d\	-du(m)	.	.	.	.	.	.	.
.	.	16dd\Jk	16gg\Jk	.	.	.	.	.	.	.	.	.	.	.
!	!	!	!LO:TX:a:t=P:mixed beam:problem	!	!	!	!	!	!	!	!	!	!	!
4c\	.	4ee\	16gg\LL	4c\	me	4c\	me	8g,<\	-na	8ee,<\	-na,	8r	8r	.
.	.	.	16c/	.	.	.	.	.	.	.	.	.	.	.
!	!	!	!	!	!	!	!	!	!	!LO:N:vis=8.	!	!	!	!
.	.	.	16e/	.	.	.	.	8g\	fe-	8ee\	fe-	8cc/	8gg\	.
.	.	.	16g/JJ	.	.	.	.	.	.	.	.	.	.	.
!	!	!	!LO:TX:a:t=P:mixed beam:problem	!	!	!	!	!	!	!	!	!	!	!
8r	.	16r	16cc\LL	8r	.	8r	.	8g\	-sti-	8ee\	-sti-	16cc/LL	16gg\LL	.
.	.	16c/LL	16e/	.	.	.	.	.	.	.	.	16ff/	16aa\	.
8c\	.	16e/	16g/	8c\	Fe-	8e\	fe-	8e\	-na	8cc\	-na,	16cc/	16gg\	.
.	.	16g/JJ	16cc/JJ	.	.	.	.	.	.	.	.	16ff/JJ	16aa\JJ	.
!	!	!	!	!	!	!	!	!	!	!	!	!LO:LB:g=original	!	!
=6	=6	=6	=6	=6	=6	=6	=6	=6	=6	=6	=6	=6	=6	=6
!LO:TX:a:t=P:mixed beam:problem	!	!	!	!	!	!	!	!	!	!	!	!LO:TX:a:t=P:mixed beam:problem	!	!
8c\L	.	16cc\LL	(16ee\LL	8c\	-sti-	8e\	-sti-	8r	.	8r	.	8cc/L	8gg\L	.
.	.	16e\	16cc\)	.	.	.	.	.	.	.	.	.	.	.
*	*	*	*	*	*	*	*	*	*ij	*	*ij	*	*	*
8C/J	.	16g\	16ee'\	8C/	-na	8c\	-na	8g\	fe-	8ee\	fe-	16gg\L	16aa\L	.
.	.	16cc\JJ	16gg`\JJ	.	.	.	.	.	.	.	.	16gg\JJ	16bb-\JJ	.
8r	.	16ee\LL	(16ee\LL	8r	.	8r	.	8g\	-sti-	8ee\	-sti-	8gg\L	8ccc\L	.
.	.	16g\	16cc\)	.	.	.	.	.	.	.	.	.	.	.
*	*	*	*	*	*ij	*	*	*	*	*	*	*	*	*
8c\	.	16cc\	16ee'\	8c\	Fe-	8c\	fe-	16e\	-na	16cc,<\	-na,	8cc\J	8gg\J	.
.	.	16ee\JJ	16gg`\JJ	.	.	.	.	16g\	fe-	16ee\	fe-	.	.	.
!	!	!	!	!	!	!	!	!	!	!	!	!	!LO:LB:g=original	!
!LO:TX:a:t=P:mixed beam:problem	!	!	!	!	!	!	!	!	!	!	!	!	!	!
8c\L	4 2	16aa\LL	8ff\L	8c\	-sti-	8d\	-sti-	8a\	-sti-	8ff\	-sti-	8ff\L	16aa\LL	.
.	.	16ff\	.	.	.	.	.	.	.	.	.	.	16bb-\	.
8B-\	6 5	16dd\	16bb-\L	8B-\	-na	8d\	-na	8g\	-na	8ff\	-na,	16ff\L	16aa\	.
.	.	16ff\JJ	16aa\JJ	.	.	.	.	.	.	.	.	16cc\JJ	16gg\JJ	.
*	*	*	*	*	*Xij	*	*	*	*Xij	*	*Xij	*	*	*
8c\	.	8ff\L	8.gg\L	8c\	Do-	8.c\	Do-	8.g\	Do-	8.ff\	Do-	8ff\L	8aa\L	.
8C/J	4	8ee\J	.	8C/	-mi-	.	.	.	.	.	.	8cc\J	16gg\L	.
.	3	.	16gg\Jk	.	.	16c\	-mi-	16g\	-mi-	16ee\	-mi-	.	16ff\JJ	.
=7	=7	=7	=7	=7	=7	=7	=7	=7	=7	=7	=7	=7	=7	=7
8F\L	.	4ff\	4aa\	4F\	-ne	4c,<\	-ne	4a\	-ne	4ff\	-ne,	4a/	4ff\	.
8E\J	.	.	.	.	.	.	.	.	.	.	.	.	.	.
!LO:TX:a:t=Solo	!	!	!	!	!	!	!	!LO:TX:a:t=Solo	!	!	!	!	!	!
4D/	.	4r	4r	4r	.	8d\	Glo-	8d\	Glo-	4r	.	4r	4r	.
.	.	.	.	.	.	16d\	-ri-	16d\	-ri-	.	.	.	.	.
.	.	.	.	.	.	16d\	-a	16d\	-a	.	.	.	.	.
!LO:LB:g=original	!	!	!	!	!	!	!	!LO:LB:g=original	!	!	!	!	!	!
4AA/	4	2r	2r	2r	.	8d\	Pa-	8e\	Pa-	2r	.	2r	2r	.
.	.	.	.	.	.	8d\	-tri	8e\	-tri	.	.	.	.	.
!LO:TX:a:t=P:mixed beam:problem	!	!	!	!	!	!	!	!	!	!	!	!	!	!
8A\L	5	.	.	.	.	8c#X\	glo-	8e\	glo-	.	.	.	.	.
!	!	!	!	!	!	!LO:LB:g=original	!	!	!	!	!	!	!	!
!	!	!	!	!	!	!LO:SIC:s=:v:16Bn	!	!	!	!	!	!	!	!
8AA/J	.	.	.	.	.	16B-\	-ri-	16d\	-ri-	.	.	.	.	.
.	.	.	.	.	.	16c#X\	-a	16e\	-a	.	.	.	.	.
!	!	!	!	!LO:LB:g=original	!	!	!	!	!	!	!	!	!	!
=8	=8	=8	=8	=8	=8	=8	=8	=8	=8	=8	=8	=8	=8	=8
8D\L	.	4r	4r	4r	.	8d\	Fi-	8f\	Fi-	4r	.	4r	4r	.
8E\J	.	.	.	.	.	16d\	-li-	16e\	-li-	.	.	.	.	.
.	.	.	.	.	.	16d\	-o	16d\	-o	.	.	.	.	.
!	!	!	!	!	!	!	!	!	!	!LO:LB:g=original	!	!	!	!
8F\L	.	8ff\L	8aa\L	8F\	Glo-	8c\	glo-	8a\	glo-	8ff\	Glo-	8aa\L	8ccc\L	.
8F\J	.	8ff\	16bb-\L	16F\	-ri-	16c\	-ri-	16a\	-ri-	16ff\	-ri-	16bb-\L	16ddd\L	.
.	.	.	16aa\JJ	16F\	-a	16c\	-a	16a\	-a	16ff,<\	-a	16aa\JJ	16ccc\JJ	.
8G\L	.	8ff\	8gg\L	8G\	Pa-	8B-\	Pa-	8g\	Pa-	8ff\	Pa-	8gg\L	8bb-\L	.
8G\J	7	8ff\J	8gg\J	8G\	-tri	8B-\	-tri	8g,<\	-tri	8ff,<\	-tri,	8gg\J	8bb-\J	.
8G\L	6	8ee\L	8gg\L	8G\	glo-	8B-\	glo-	8g\	glo-	8ee\	glo-	8gg\L	8bb-\L	.
16F\L	.	16ff\L	16aa\L	16F\	-ri-	16A/	-ri-	16a\	-ri-	16ff\	-ri-	16aa\L	16ccc\L	.
16G\JJ	.	16ee\JJ	16gg\JJ	16G\	-a	16B-\	-a	16g\	-a	16ee,<\	-a,	16gg\JJ	16bb-\JJ	.
!	!	!LO:LB:g=original	!	!	!	!	!	!	!	!	!	!	!	!
=9	=9	=9	=9	=9	=9	=9	=9	=9	=9	=9	=9	=9	=9	=9
8A\L	6	8ff\L	8ff\L	8A\	Fi-	8c\	Fi-	8f\	Fi-	8ff\	Fi-	8ff\L	8aa\L	.
8F\J	.	8ff\J	8aa\J	16G\	-li-	16B-\	-li-	16f\	-li-	16ff\	-li-	8ff\J	8aa\J	.
.	.	.	.	16F\	-o	16A/	-o	16f,<\	-o	16ff,<\	-o	.	.	.
!	!	!	!	!LO:TX:b:t=Solo	!	!	!	!LO:TX:a:t=Solo	!	!LO:TX:a:t=Soli	!	!	!	!
8E\L	6	4r	4r	8c\	glo-	4r	.	8g\	glo-	8cc\	glo-	4r	4r	.
8C\J	.	.	.	16c\	-ri-	.	.	16f\	-ri-	16cc\	-ri-	.	.	.
.	.	.	.	16c\	-a	.	.	16e\	-a	16cc,<\	-a	.	.	.
4FF/	6 5	2r	2r	8c\	et	2r	.	8f\	et	8dd\	et	2r	2r	.
.	.	.	.	8c\	ſpi-	.	.	8f\	ſpi-	8dd,<\	ſpi-	.	.	.
4GG/	4	.	.	8Bn\	-ri-	.	.	8d\	-ti-	8dd\	-ti-	.	.	.
.	3	.	.	16A\	-tu-	.	.	16g\	-tu-	16cc\	-tu-	.	.	.
.	.	.	.	16Bn\	-i	.	.	16g\	-i	16dd,<\	-i,	.	.	.
!	!	!	!LO:LB:g=original	!	!	!	!	!	!	!	!	!	!	!
=10	=10	=10	=10	=10	=10	=10	=10	=10	=10	=10	=10	=10	=10	=10
4C/	.	4r	4r	8c\	ſan-	4r	.	8g\	ſan-	8ee\	ſan-	4r	4r	.
!	!	!	!	!LO:SIC:o=:v:oddech jako rozdzielacz słów-global	!	!	!	!	!	!	!	!	!	!
.	.	.	.	8c,<\	-cto	.	.	8g\	-cto	8cc,<\	-cto,	.	.	.
!	!	!	!	!LO:LB:g=original	!	!	!	!LO:LB:g=original	!	!	!	!	!	!
!	!	!	!	!LO:TX:b:t=Tutti	!	!	!	!	!	!LO:TX:rj:a:t=Tutti	!	!	!	!
8c\L	.	8ee\L	8gg\L	8c\	ſi-	8c\	ſi-	8e\	ſi-	8g/	ſi-	8cc/L	8gg\L	.
8B-X\J	4 2	8ee\J	8gg\J	8B-X\	-cut	8c\	-cut	8e\	-cut	8g/	-cut	8cc/J	8gg\J	.
!	!	!	!	!	!	!LO:SIC:s=:v:8c&colon;t=lub A	!	!	!	!	!	!	!	!
8A\L	6	8ff\L	8aa\L	8A\	e-	8B-\	e-	8f\	e-	8a\	e-	8ff\L	8aa\L	.
8G\	6	8gg\	8bb-\	8G\	-rat	8B-\	-rat	8e\	-rat	8b-\	-rat	8gg\	8bb-\	.
8A\	6	8ff\	8aa\	8A\	in	8c\	in	8f\	in	8a\	in	8ff\	8aa\	.
8F\J	.	8ff\J	8aa\J	8F\	prin-	8c\	prin-	8a\	prin-	8a\	prin-	8ff\J	8aa\J	.
!	!	!	!	!	!	!	!	!	!	!LO:LB:g=original	!	!	!	!
=11	=11	=11	=11	=11	=11	=11	=11	=11	=11	=11	=11	=11	=11	=11
!	!	!	!LO:TX:b:t=andantē&colon;	!	!	!	!	!	!	!	!	!	!	!
4B-\	x 3	8.dd\L	8.ff\L	8.B-\	-ci-	8.d\	-ci-	8.f\	-ci-	8.b-\	-ci-	8ff\L	16bb-\LL	.
.	4 2	.	.	.	.	.	.	.	.	.	.	.	16aa\	.
.	.	.	.	.	.	.	.	.	.	.	.	8gg\	16bb-\	.
.	.	16ee\Jk	16gg\Jk	16B-\	-pi-	16e\	-pi-	16g\	-pi-	16cc\	-pi-	.	16ccc\JJ	.
!	!	!	!	!	!	!LO:LB:g=original	!	!	!	!	!	!	!	!
4A\	6 3	8ff\L	8aa\L	8A\	-o	8f\	-o	8a\	-o,	8a,<\	-o,	8ff\	8aa\L	.
.	.	8aa\J	8ff\J	8A\	et	8c\	et	8f\	et	8cc\	et	8ff\J	8ccc\J	.
!	!	!	!LO:TX:b:t=tutti	!	!	!	!	!	!	!	!	!	!	!
8G\L	x -	8dd\L	8gg\L	8G\	nunc	8B-\	nunc	8g\	nunc	8dd\	nunc	8gg\L	8bb-\L	.
8A\	.	8cc\	8ff\	8A\	et	8c\	et	8f\	et	8cc\	et	8ff\J	8aa\J	.
8B-\	.	8b-\	8gg\	8B-\	nunc	8d\	ſem-	8g\	nunc	8b-\	nunc,	8gg\L	16gg\LL	.
.	.	.	.	.	.	.	.	.	.	.	.	.	16aa\	.
8G\J	.	8bb-\J	8gg\J	8G\	et	8d\	-per	8g\	et	8dd\	et	16gg\L	16bb-\	.
.	.	.	.	.	.	.	.	.	.	.	.	16ff\JJ	16aa\JJ	.
!	!	!	!	!	!	!	!	!	!	!	!	!	!LO:LB:g=original	!
=12	=12	=12	=12	=12	=12	=12	=12	=12	=12	=12	=12	=12	=12	=12
!	!	!	!	!	!	!	!	!	!	!	!	!	!LO:TX:a:t=P:mixed beam:problem	!
4c\	.	8ee\L	8gg\L	8c\	ſem-	8e\	ſem-	8g\	ſem-	8cc\	ſem-	8cc/L	8gg\L	.
.	.	8ee\	8gg\J	8c\	-per	8e,<\	-per	8g,<\	-per	8cc,<\	-per	8cc/J	8cc/J	.
!	!	!	!	!	!	!	!	!	!	!	!	!LO:LB:g=original	!	!
8A\L	6	8cc\	8aa\L	8A\	et	8f\	et	8a\	et	8cc\	et	4r	8f/L	.
8F\J	.	8ff\J	8aa\J	8F\	in	8c\	in	8a\	in	8cc\	in	.	8f/J	.
8B-\L	.	8dd\L	8ff\L	8B-\	ſae-	8B-\	ſae-	8f\	ſae-	8dd\	ſae-	8f/L	8f/L	.
8A\	6	16dd\L	16ff\L	16B-\	-cu-	16B-\	-cu-	16f\	-cu-	16dd\	-cu-	8f/J	16f/L	.
.	.	16cc\JJ	16ff\JJ	16A\	-la	16c\	-la	16f\	-la	16cc,<\	-la,	.	16f/JJ	.
8B-\	.	8dd\L	8ff\L	8B-\	ſae-	8B-\	ſae-	8f\	ſae-	8dd\	ſae-	8f/L	16f/LL	.
.	.	.	.	.	.	.	.	.	.	.	.	.	16f/	.
8F\J	.	8cc\J	8ff\J	8F\	-cu-	8c\	-cu-	8f\	-cu-	8cc\	-cu-	16f/L	16f/	.
.	.	.	.	.	.	.	.	.	.	.	.	16f/JJ	16f/JJ	.
!	!	!	!	!LO:LB:g=original	!	!	!	!	!	!	!	!	!	!
=13	=13	=13	=13	=13	=13	=13	=13	=13	=13	=13	=13	=13	=13	=13
4D/	6\ 4 3	8dd\L	8ff\L	4D/	-lo-	4Bn\	-lo-	(8f\L	-lo-	(8dd\L	-lo-	16f/LL	16f/LL	.
.	.	.	.	.	.	.	.	.	.	.	.	16f/	16f/	.
.	.	8ee\J	8gg\J	.	.	.	.	8g\J)	.	8ee\J)	.	16f/	16f/	.
.	.	.	.	.	.	.	.	.	.	.	.	16f/JJ	16f/JJ	.
!	!	!	!	!	!	!	!	!LO:LB:g=original	!	!	!	!	!	!
!	!	!	!	!	!	!	!	!LO:SIC:s=:v:4a-	!	!	!	!	!LO:SIC:s=:v:4c	!
4BBn/	x -7 5	4ff\	4aa-X\	4BBn/	-rum	4d\	-rum	4a\	-rum	4ff\	-rum	4f/	4g/	.
2r	.	4r	4r	2r	.	2r	.	2r	.	2r	.	2r	2r	.
.	.	4f/	4a-X/	.	.	.	.	.	.	.	.	.	.	.
=14	=14	=14	=14	=14	=14	=14	=14	=14	=14	=14	=14	=14	=14	=14
!	!	!LO:TX:a:t=P:mixed beam:problem	!LO:TX:a:t=P:mixed beam:problem	!	!	!	!	!	!	!	!	!	!	!LO:DY:b:t=Forte
1C/	5 3	8e/L	8g/L	1C/	A-	4c\	A-	4e\	A-	4g/	A-	8cc/L	8cc/L	f
.	.	8ee\J	8gg\J	.	.	.	.	.	.	.	.	16cc/L	16cc/L	.
.	.	.	.	.	.	.	.	.	.	.	.	16cc/JJ	16cc/JJ	.
*	*	*2\right	*	*	*	*	*	*	*	*	*	*	*	*
.	6 4	2ff\	8aa\L	.	.	4c\	-men	4f\	-men	4a\	-men	16cc/LL	16cc/LL	.
.	.	.	.	.	.	.	.	.	.	.	.	16cc/	16cc/	.
.	.	.	8gg\J	.	.	.	.	.	.	.	.	16cc/	16cc/	.
.	.	.	.	.	.	.	.	.	.	.	.	16cc/JJ	16cc/JJ	.
*	*	*	*2\right	*	*	*2\right	*	*	*	*	*	*	*	*
.	5 4	.	2ggT\	.	.	2c\	A-	(4f\	A-	2g/	a-	8cc/L	8cc/L	.
.	.	.	.	.	.	.	.	.	.	.	.	16cc/L	16cc/L	.
.	.	.	.	.	.	.	.	.	.	.	.	16cc/JJ	16cc/JJ	.
.	x 3	4ee\	.	.	.	.	.	4e\)	.	.	.	8cc/L	16cc/LL	.
.	.	.	.	.	.	.	.	.	.	.	.	.	16cc/	.
.	.	.	.	.	.	.	.	.	.	.	.	8cc/J	16cc/	.
.	.	.	.	.	.	.	.	.	.	.	.	.	16cc/JJ	.
=15	=15	=15	=15	=15	=15	=15	=15	=15	=15	=15	=15	=15	=15	=15
!	!	!	!	!	!	!	!	!LO:TX:a:t=problem&colon;druga fermata na dole	!	!	!	!	!	!
0FF/;;	.	0ff\;	0aa\;	0FF/;	-men	0c\;;	-men	0f\;;	-men	0a\;;	-men	8a/L	8cc/L	.
.	.	.	.	.	.	.	.	.	.	.	.	16a/L	16cc/L	.
.	.	.	.	.	.	.	.	.	.	.	.	16a/JJ	16cc/JJ	.
.	.	.	.	.	.	.	.	.	.	.	.	16a/LL	16cc/LL	.
.	.	.	.	.	.	.	.	.	.	.	.	16a/	16cc/	.
.	.	.	.	.	.	.	.	.	.	.	.	16a/	16cc/	.
.	.	.	.	.	.	.	.	.	.	.	.	16a/JJ	16cc/JJ	.
.	.	.	.	.	.	.	.	.	.	.	.	16f/LL	16a/LL	.
.	.	.	.	.	.	.	.	.	.	.	.	16f/	16a/	.
.	.	.	.	.	.	.	.	.	.	.	.	16f/	16a/	.
.	.	.	.	.	.	.	.	.	.	.	.	16f/JJ	16a/JJ	.
.	.	.	.	.	.	.	.	.	.	.	.	16f/LL	16a/LL	.
.	.	.	.	.	.	.	.	.	.	.	.	16f/	16a/	.
.	.	.	.	.	.	.	.	.	.	.	.	16f/	16a/	.
.	.	.	.	.	.	.	.	.	.	.	.	16f/JJ	16a/JJ	.
=16-	=16-	=16-	=16-	=16-	=16-	=16-	=16-	=16-	=16-	=16-	=16-	=16	=16	=16
.	.	.	.	.	.	.	.	.	.	.	.	1f/;	1a/;	.
==	==	==	==	==	==	==	==	==	==	==	==	==:||:	==:||:	==
*-	*-	*-	*-	*-	*-	*-	*-	*-	*-	*-	*-	*-	*-	*-
!!!system-decoration: [(s1,s2)][(s3,s4,s5,s6)][(s7,s8)]s9
!!!RDF**kern: > = above
!!!RDF**kern: < = below
!!!EED: Leszek Kubiak
!!!EST: 2020-11-24
!!!AIN: 1 alto 1 empty 2 liuto 1 organ 1 tenor 2 violn 1 vox
!!!ENC: Andrzej Borzym
!!!END: 2020-05-15
